; generated by Slic3r 1.37.2.1-prusa3d-win64 on 2019-12-20 at 22:50:34

; 

; external perimeters extrusion width = 0.45mm
; perimeters extrusion width = 0.45mm
; infill extrusion width = 0.45mm
; solid infill extrusion width = 0.45mm
; top infill extrusion width = 0.40mm
; first layer extrusion width = 0.42mm

M107 ; disable fan
M115 U3.4.0 ; tell printer latest fw version
M83  ; extruder relative mode
M104 S215 ; set extruder temp
M140 S60 ; set bed temp
M190 S60 ; wait for bed temp
M109 S215 ; wait for extruder temp
G28 W ; home all without mesh bed level
G80 ; mesh bed leveling
G1 Y-3.0 F1000.0 ; go outside print area
G92 E0.0
G1 X60.0 E9.0  F1000.0 ; intro line
G1 X100.0 E12.5  F1000.0 ; intro line
G92 E0.0
M221 S95
M900 K30
G21 ; set units to millimeters
G90 ; use absolute coordinates
M83 ; use relative distances for extrusion
;BEFORE_LAYER_CHANGE
G92 E0.0
;0.2


G1 E-0.80000 F2100.00000 ; retract
G1 Z0.600 F10800.000 ; lift Z
;AFTER_LAYER_CHANGE
;0.2
G1 X101.072 Y89.751 F10800.000 ; move to first skirt point
G1 Z0.200 F10800.000 ; restore layer Z
G1 E0.80000 F2100.00000 ; unretract
M204 S1000 ; adjust acceleration
G1 F1200
G1 X101.122 Y89.044 E0.02225 ; skirt
G1 X101.300 Y88.534 E0.01692 ; skirt
G1 X101.590 Y88.074 E0.01704 ; skirt
G1 X101.974 Y87.695 E0.01692 ; skirt
G1 X102.437 Y87.410 E0.01704 ; skirt
G1 X117.339 Y81.235 E0.50576 ; skirt
G1 X118.227 Y81.065 E0.02837 ; skirt
G1 X119.119 Y81.240 E0.02849 ; skirt
G1 X119.882 Y81.739 E0.02860 ; skirt
G1 X148.245 Y110.101 E1.25762 ; skirt
G1 X148.695 Y110.734 E0.02437 ; skirt
G1 X148.864 Y111.199 E0.01550 ; skirt
G1 X148.934 Y111.692 E0.01562 ; skirt
G1 X148.900 Y112.185 E0.01550 ; skirt
G1 X148.763 Y112.664 E0.01562 ; skirt
G1 X142.600 Y127.541 E0.50492 ; skirt
G1 X142.140 Y128.215 E0.02555 ; skirt
G1 X141.477 Y128.695 E0.02567 ; skirt
G1 X140.543 Y128.933 E0.03024 ; skirt
G1 X139.590 Y128.780 E0.03024 ; skirt
G1 X116.293 Y119.126 E0.79069 ; skirt
G1 X115.690 Y118.704 E0.02308 ; skirt
G1 X111.328 Y114.342 E0.19342 ; skirt
G1 X110.872 Y113.703 E0.02461 ; skirt
G1 X101.231 Y90.439 E0.78960 ; skirt
G1 X101.086 Y89.810 E0.02025 ; skirt
G1 F8640
G1 X101.122 Y89.044 E-0.17714 ; wipe and retract
G1 F8640
G1 X101.300 Y88.534 E-0.12462 ; wipe and retract
G1 F8640
G1 X101.590 Y88.074 E-0.12549 ; wipe and retract
G1 F8640
G1 X101.974 Y87.695 E-0.12462 ; wipe and retract
G1 F8640
G1 X102.437 Y87.410 E-0.12550 ; wipe and retract
G1 F8640
G1 X102.768 Y87.273 E-0.08263 ; wipe and retract
G1 E-0.04000 F2100.00000 ; retract
G1 Z0.800 F10800.000 ; lift Z
G1 X104.209 Y89.882 F10800.000 ; move to first perimeter point
G1 Z0.200 F10800.000 ; restore layer Z
G1 E0.80000 F2100.00000 ; unretract
G1 F1200
G1 X117.906 Y84.209 E0.46486 ; perimeter
G1 X126.074 Y103.927 E0.66919 ; perimeter
G1 X145.791 Y112.094 E0.66917 ; perimeter
G1 X140.118 Y125.791 E0.46485 ; perimeter
G1 X117.671 Y116.493 E0.76179 ; perimeter
G1 X113.507 Y112.329 E0.18466 ; perimeter
G1 X104.232 Y89.938 E0.75991 ; perimeter
G1 X103.716 Y89.678 F10800.000 ; move to first perimeter point
G1 F1200
G1 X118.110 Y83.716 E0.48850 ; perimeter
G1 X126.362 Y103.638 E0.67611 ; perimeter
G1 X146.284 Y111.890 E0.67609 ; perimeter
G1 X140.322 Y126.284 E0.48850 ; perimeter
G1 X117.457 Y116.813 E0.77596 ; perimeter
G1 X113.187 Y112.543 E0.18936 ; perimeter
G1 X103.739 Y89.734 E0.77408 ; perimeter
G1 X104.114 Y89.720 F10800.000 ; move inwards before travel
G1 F8640
G1 X106.775 Y88.462 E-0.76000 ; wipe and retract
G1 E-0.04000 F2100.00000 ; retract
G1 Z0.800 F10800.000 ; lift Z
G1 X117.300 Y84.582 F10800.000 ; move to first infill point
G1 Z0.200 F10800.000 ; restore layer Z
G1 E0.80000 F2100.00000 ; unretract
G1 F1200
G1 X118.076 Y85.358 E0.03465 ; infill
G1 X118.456 Y86.275 E0.03131 ; infill
G1 X117.050 Y84.869 E0.06275 ; infill
G1 X116.671 Y85.027 E0.01297 ; infill
G1 X118.835 Y87.191 E0.09664 ; infill
G1 X119.215 Y88.108 E0.03131 ; infill
G1 X116.291 Y85.184 E0.13053 ; infill
G1 X115.911 Y85.341 E0.01297 ; infill
G1 X119.595 Y89.024 E0.16443 ; infill
G1 X119.974 Y89.941 E0.03131 ; infill
G1 X115.532 Y85.498 E0.19832 ; infill
G1 X115.152 Y85.656 E0.01297 ; infill
G1 X120.354 Y90.857 E0.23222 ; infill
G1 X120.734 Y91.774 E0.03131 ; infill
G1 X114.772 Y85.813 E0.26611 ; infill
G1 X114.393 Y85.970 E0.01297 ; infill
G1 X121.113 Y92.690 E0.30000 ; infill
G1 X121.493 Y93.607 E0.03131 ; infill
G1 X114.013 Y86.127 E0.33390 ; infill
G1 X113.634 Y86.285 E0.01297 ; infill
G1 X121.872 Y94.523 E0.36779 ; infill
G1 X122.252 Y95.440 E0.03131 ; infill
G1 X113.254 Y86.442 E0.40168 ; infill
G1 X112.874 Y86.599 E0.01297 ; infill
G1 X122.632 Y96.356 E0.43558 ; infill
G1 X123.011 Y97.273 E0.03131 ; infill
G1 X112.495 Y86.756 E0.46947 ; infill
G1 X112.115 Y86.914 E0.01297 ; infill
G1 X123.391 Y98.189 E0.50337 ; infill
G1 X123.771 Y99.106 E0.03131 ; infill
G1 X111.735 Y87.071 E0.53726 ; infill
G1 X111.356 Y87.228 E0.01297 ; infill
G1 X124.150 Y100.022 E0.57115 ; infill
G1 X124.530 Y100.939 E0.03131 ; infill
G1 X110.976 Y87.385 E0.60505 ; infill
G1 X110.597 Y87.543 E0.01297 ; infill
G1 X124.909 Y101.855 E0.63894 ; infill
G1 X125.289 Y102.772 E0.03131 ; infill
G1 X110.217 Y87.700 E0.67284 ; infill
G1 X109.837 Y87.857 E0.01297 ; infill
G1 X125.669 Y103.688 E0.70673 ; infill
G1 X125.857 Y104.143 E0.01555 ; infill
G1 X126.312 Y104.332 E0.01555 ; infill
G1 X142.143 Y120.163 E0.70671 ; infill
G1 X142.300 Y119.783 E0.01297 ; infill
G1 X127.229 Y104.711 E0.67281 ; infill
G1 X128.145 Y105.091 E0.03131 ; infill
G1 X142.457 Y119.403 E0.63892 ; infill
G1 X142.615 Y119.024 E0.01297 ; infill
G1 X129.062 Y105.471 E0.60503 ; infill
G1 X129.978 Y105.850 E0.03131 ; infill
G1 X142.772 Y118.644 E0.57114 ; infill
G1 X142.929 Y118.265 E0.01297 ; infill
G1 X130.895 Y106.230 E0.53724 ; infill
G1 X131.811 Y106.609 E0.03131 ; infill
G1 X143.086 Y117.885 E0.50335 ; infill
G1 X143.244 Y117.505 E0.01297 ; infill
G1 X132.727 Y106.989 E0.46946 ; infill
G1 X133.644 Y107.369 E0.03131 ; infill
G1 X143.401 Y117.126 E0.43556 ; infill
G1 X143.558 Y116.746 E0.01297 ; infill
G1 X134.560 Y107.748 E0.40167 ; infill
G1 X135.477 Y108.128 E0.03131 ; infill
G1 X143.715 Y116.366 E0.36778 ; infill
G1 X143.873 Y115.987 E0.01297 ; infill
G1 X136.393 Y108.507 E0.33389 ; infill
G1 X137.310 Y108.887 E0.03131 ; infill
G1 X144.030 Y115.607 E0.29999 ; infill
G1 X144.187 Y115.228 E0.01297 ; infill
G1 X138.226 Y109.267 E0.26610 ; infill
G1 X139.143 Y109.646 E0.03131 ; infill
G1 X144.344 Y114.848 E0.23221 ; infill
G1 X144.502 Y114.468 E0.01297 ; infill
G1 X140.059 Y110.026 E0.19831 ; infill
G1 X140.976 Y110.405 E0.03131 ; infill
G1 X144.659 Y114.089 E0.16442 ; infill
G1 X144.816 Y113.709 E0.01297 ; infill
G1 X141.892 Y110.785 E0.13053 ; infill
G1 X142.809 Y111.165 E0.03131 ; infill
G1 X144.973 Y113.329 E0.09664 ; infill
G1 X145.131 Y112.950 E0.01297 ; infill
G1 X143.725 Y111.544 E0.06274 ; infill
G1 X144.642 Y111.924 E0.03131 ; infill
G1 X145.418 Y112.700 E0.03465 ; infill
G1 F8640
G1 X144.642 Y111.924 E-0.25344 ; wipe and retract
G1 F8640
G1 X143.725 Y111.544 E-0.22905 ; wipe and retract
G1 F8640
G1 X144.575 Y112.394 E-0.27751 ; wipe and retract
G1 E-0.04000 F2100.00000 ; retract
G1 Z0.800 F10800.000 ; lift Z
G1 X142.116 Y120.672 F10800.000 ; move to first infill point
G1 Z0.200 F10800.000 ; restore layer Z
G1 E0.80000 F2100.00000 ; unretract
G1 F1200
G1 X109.458 Y88.014 E1.45789 ; infill
G1 X109.078 Y88.172 E0.01297 ; infill
G1 X141.828 Y120.922 E1.46202 ; infill
G1 X141.671 Y121.302 E0.01297 ; infill
G1 X108.698 Y88.329 E1.47195 ; infill
G1 X108.319 Y88.486 E0.01297 ; infill
G1 X141.514 Y121.681 E1.48187 ; infill
G1 X141.357 Y122.061 E0.01297 ; infill
G1 X107.939 Y88.643 E1.49180 ; infill
G1 X107.560 Y88.801 E0.01297 ; infill
G1 X141.200 Y122.440 E1.50173 ; infill
G1 X141.042 Y122.820 E0.01297 ; infill
G1 X107.180 Y88.958 E1.51165 ; infill
G1 X106.800 Y89.115 E0.01297 ; infill
G1 X140.885 Y123.200 E1.52158 ; infill
G1 X140.728 Y123.579 E0.01297 ; infill
G1 X106.421 Y89.272 E1.53151 ; infill
G1 X106.041 Y89.429 E0.01297 ; infill
G1 X140.571 Y123.959 E1.54144 ; infill
G1 X140.413 Y124.339 E0.01297 ; infill
G1 X105.661 Y89.587 E1.55136 ; infill
G1 X105.282 Y89.744 E0.01297 ; infill
G1 X140.256 Y124.718 E1.56129 ; infill
G1 X140.099 Y125.098 E0.01297 ; infill
G1 X104.902 Y89.901 E1.57122 ; infill
G1 X104.578 Y90.035 E0.01107 ; infill
G1 X104.634 Y90.170 E0.00459 ; infill
G1 X139.830 Y125.366 E1.57120 ; infill
G1 X138.914 Y124.986 E0.03131 ; infill
G1 X105.014 Y91.086 E1.51334 ; infill
G1 X105.393 Y92.003 E0.03131 ; infill
G1 X137.997 Y124.607 E1.45548 ; infill
G1 X137.081 Y124.227 E0.03131 ; infill
G1 X105.773 Y92.919 E1.39762 ; infill
G1 X106.152 Y93.836 E0.03131 ; infill
G1 X136.164 Y123.848 E1.33976 ; infill
G1 X135.248 Y123.468 E0.03131 ; infill
G1 X106.532 Y94.752 E1.28190 ; infill
G1 X106.912 Y95.669 E0.03131 ; infill
G1 X134.331 Y123.088 E1.22404 ; infill
G1 X133.415 Y122.709 E0.03131 ; infill
G1 X107.291 Y96.585 E1.16618 ; infill
G1 X107.671 Y97.502 E0.03131 ; infill
G1 X132.498 Y122.329 E1.10832 ; infill
G1 X131.582 Y121.949 E0.03131 ; infill
G1 X108.051 Y98.418 E1.05046 ; infill
G1 X108.430 Y99.335 E0.03131 ; infill
G1 X130.665 Y121.570 E0.99259 ; infill
G1 X129.749 Y121.190 E0.03131 ; infill
G1 X108.810 Y100.251 E0.93473 ; infill
G1 X109.189 Y101.168 E0.03131 ; infill
G1 X128.832 Y120.811 E0.87687 ; infill
G1 X127.916 Y120.431 E0.03131 ; infill
G1 X109.569 Y102.084 E0.81901 ; infill
G1 X109.949 Y103.001 E0.03131 ; infill
G1 X126.999 Y120.051 E0.76115 ; infill
G1 X126.083 Y119.672 E0.03131 ; infill
G1 X110.328 Y103.917 E0.70329 ; infill
G1 X110.708 Y104.834 E0.03131 ; infill
G1 X125.166 Y119.292 E0.64543 ; infill
G1 X124.250 Y118.912 E0.03131 ; infill
G1 X111.088 Y105.750 E0.58757 ; infill
G1 X111.467 Y106.667 E0.03131 ; infill
G1 X123.333 Y118.533 E0.52971 ; infill
G1 X122.417 Y118.153 E0.03131 ; infill
G1 X111.847 Y107.583 E0.47185 ; infill
G1 X112.226 Y108.500 E0.03131 ; infill
G1 X121.500 Y117.774 E0.41399 ; infill
G1 X120.584 Y117.394 E0.03131 ; infill
G1 X112.606 Y109.416 E0.35613 ; infill
G1 X112.986 Y110.333 E0.03131 ; infill
G1 X119.667 Y117.014 E0.29827 ; infill
G1 X118.751 Y116.635 E0.03131 ; infill
G1 X113.365 Y111.249 E0.24040 ; infill
G1 X113.745 Y112.166 E0.03131 ; infill
G1 X118.148 Y116.569 E0.19654 ; infill
M106 S255 ; enable fan
;BEFORE_LAYER_CHANGE
G92 E0.0
;0.35


G1 F8640
G1 X115.820 Y114.241 E-0.76000 ; wipe and retract
G1 E-0.04000 F2100.00000 ; retract
G1 Z0.800 F10800.000 ; lift Z
;AFTER_LAYER_CHANGE
;0.35
G1 X140.543 Y128.933 F10800.000 ; move to first skirt point
G1 Z0.350 F10800.000 ; restore layer Z
G1 E0.80000 F2100.00000 ; unretract
G1 F2641
G1 X139.590 Y128.780 E0.02333 ; skirt
G1 X116.293 Y119.126 E0.60990 ; skirt
G1 X115.690 Y118.704 E0.01780 ; skirt
G1 X111.328 Y114.342 E0.14919 ; skirt
G1 X110.872 Y113.703 E0.01898 ; skirt
G1 X101.231 Y90.439 E0.60905 ; skirt
G1 X101.072 Y89.751 E0.01707 ; skirt
G1 X101.122 Y89.044 E0.01716 ; skirt
G1 X101.300 Y88.534 E0.01305 ; skirt
G1 X101.590 Y88.074 E0.01314 ; skirt
G1 X101.974 Y87.695 E0.01305 ; skirt
G1 X102.437 Y87.410 E0.01314 ; skirt
G1 X117.339 Y81.235 E0.39012 ; skirt
G1 X118.227 Y81.065 E0.02188 ; skirt
G1 X119.119 Y81.240 E0.02197 ; skirt
G1 X119.882 Y81.739 E0.02206 ; skirt
G1 X148.245 Y110.101 E0.97005 ; skirt
G1 X148.695 Y110.734 E0.01880 ; skirt
G1 X148.864 Y111.199 E0.01195 ; skirt
G1 X148.934 Y111.692 E0.01205 ; skirt
G1 X148.900 Y112.185 E0.01195 ; skirt
G1 X148.763 Y112.664 E0.01205 ; skirt
G1 X142.600 Y127.541 E0.38947 ; skirt
G1 X142.140 Y128.215 E0.01971 ; skirt
G1 X141.477 Y128.695 E0.01980 ; skirt
G1 X140.601 Y128.918 E0.02188 ; skirt
G1 F8640
G1 X139.590 Y128.780 E-0.23550 ; wipe and retract
G1 F8640
G1 X137.492 Y127.911 E-0.52450 ; wipe and retract
G1 E-0.04000 F2100.00000 ; retract
G1 Z0.950 F10800.000 ; lift Z
G1 X140.087 Y125.718 F10800.000 ; move to first perimeter point
G1 Z0.350 F10800.000 ; restore layer Z
G1 E0.80000 F2100.00000 ; unretract
M204 S800 ; adjust acceleration
G1 F2377
G1 X117.702 Y116.446 E0.63131 ; perimeter
G1 X113.554 Y112.298 E0.15287 ; perimeter
G1 X104.282 Y89.913 E0.63131 ; perimeter
G1 X117.876 Y84.282 E0.38340 ; perimeter
G1 X126.031 Y103.970 E0.55527 ; perimeter
G1 X145.718 Y112.124 E0.55522 ; perimeter
G1 X140.110 Y125.663 E0.38183 ; perimeter
M204 S1000 ; adjust acceleration
G1 X140.314 Y126.264 F10800.000 ; move to first perimeter point
M204 S800 ; adjust acceleration
G1 F2100
G1 X117.466 Y116.800 E0.64437 ; perimeter
G1 X113.200 Y112.534 E0.15721 ; perimeter
G1 X103.736 Y89.686 E0.64437 ; perimeter
G1 X118.102 Y83.736 E0.40517 ; perimeter
G1 X126.351 Y103.651 E0.56165 ; perimeter
G1 X146.264 Y111.898 E0.56160 ; perimeter
G1 X140.337 Y126.209 E0.40360 ; perimeter
M204 S1000 ; adjust acceleration
G1 X139.984 Y126.038 F10800.000 ; move inwards before travel
G1 F8640
G1 X137.293 Y124.957 E-0.76000 ; wipe and retract
G1 E-0.04000 F2100.00000 ; retract
G1 Z0.950 F10800.000 ; lift Z
G1 X139.417 Y125.305 F10800.000 ; move to first infill point
G1 Z0.350 F10800.000 ; restore layer Z
G1 E0.80000 F2100.00000 ; unretract
M204 S1250 ; adjust acceleration
G1 F10565
G1 X140.275 Y124.448 E0.03173 ; infill
G1 X140.694 Y123.435 E0.02871 ; infill
G1 X139.142 Y124.987 E0.05747 ; infill
G1 X138.722 Y124.814 E0.01189 ; infill
G1 X141.114 Y122.421 E0.08855 ; infill
G1 X141.534 Y121.408 E0.02871 ; infill
G1 X138.302 Y124.640 E0.11962 ; infill
G1 X137.882 Y124.466 E0.01189 ; infill
G1 X141.953 Y120.395 E0.15069 ; infill
G1 X142.373 Y119.382 E0.02871 ; infill
G1 X137.463 Y124.292 E0.18176 ; infill
G1 X137.043 Y124.118 E0.01189 ; infill
G1 X142.793 Y118.368 E0.21283 ; infill
G1 X143.212 Y117.355 E0.02871 ; infill
G1 X136.623 Y123.944 E0.24390 ; infill
G1 X136.204 Y123.770 E0.01189 ; infill
G1 X143.632 Y116.342 E0.27497 ; infill
G1 X144.052 Y115.329 E0.02871 ; infill
G1 X135.784 Y123.597 E0.30604 ; infill
G1 X135.364 Y123.423 E0.01189 ; infill
G1 X144.472 Y114.315 E0.33711 ; infill
G1 X144.891 Y113.302 E0.02871 ; infill
G1 X134.945 Y123.249 E0.36818 ; infill
G1 X134.525 Y123.075 E0.01189 ; infill
G1 X145.307 Y112.293 E0.39911 ; infill
G1 X144.887 Y112.119 E0.01189 ; infill
G1 X134.105 Y122.901 E0.39911 ; infill
G1 X133.685 Y122.727 E0.01189 ; infill
G1 X144.468 Y111.945 E0.39911 ; infill
G1 X144.048 Y111.771 E0.01189 ; infill
G1 X133.266 Y122.554 E0.39911 ; infill
G1 X132.846 Y122.380 E0.01189 ; infill
G1 X143.628 Y111.598 E0.39911 ; infill
G1 X143.208 Y111.424 E0.01189 ; infill
G1 X132.426 Y122.206 E0.39910 ; infill
G1 X132.007 Y122.032 E0.01189 ; infill
G1 X142.789 Y111.250 E0.39910 ; infill
G1 X142.369 Y111.076 E0.01189 ; infill
G1 X131.587 Y121.858 E0.39910 ; infill
G1 X131.167 Y121.684 E0.01189 ; infill
G1 X141.949 Y110.902 E0.39910 ; infill
G1 X141.530 Y110.728 E0.01189 ; infill
G1 X130.747 Y121.510 E0.39910 ; infill
G1 X130.328 Y121.337 E0.01189 ; infill
G1 X141.110 Y110.555 E0.39910 ; infill
G1 X140.690 Y110.381 E0.01189 ; infill
G1 X129.908 Y121.163 E0.39910 ; infill
G1 X129.488 Y120.989 E0.01189 ; infill
G1 X140.270 Y110.207 E0.39910 ; infill
G1 X139.851 Y110.033 E0.01189 ; infill
G1 X129.069 Y120.815 E0.39910 ; infill
G1 X128.649 Y120.641 E0.01189 ; infill
G1 X139.431 Y109.859 E0.39910 ; infill
G1 X139.011 Y109.685 E0.01189 ; infill
G1 X128.229 Y120.467 E0.39910 ; infill
G1 X127.810 Y120.294 E0.01189 ; infill
G1 X138.592 Y109.512 E0.39910 ; infill
G1 X138.172 Y109.338 E0.01189 ; infill
G1 X127.390 Y120.120 E0.39910 ; infill
G1 X126.970 Y119.946 E0.01189 ; infill
G1 X137.752 Y109.164 E0.39910 ; infill
G1 X137.332 Y108.990 E0.01189 ; infill
G1 X126.550 Y119.772 E0.39910 ; infill
G1 X126.131 Y119.598 E0.01189 ; infill
G1 X136.913 Y108.816 E0.39910 ; infill
G1 X136.493 Y108.642 E0.01189 ; infill
G1 X125.711 Y119.424 E0.39910 ; infill
G1 X125.291 Y119.250 E0.01189 ; infill
G1 X136.073 Y108.469 E0.39910 ; infill
G1 X135.654 Y108.295 E0.01189 ; infill
G1 X124.872 Y119.077 E0.39910 ; infill
G1 X124.452 Y118.903 E0.01189 ; infill
G1 X135.234 Y108.121 E0.39910 ; infill
G1 X134.814 Y107.947 E0.01189 ; infill
G1 X124.032 Y118.729 E0.39909 ; infill
