; generated by Slic3r 1.37.2.1-prusa3d-win64 on 2019-12-20 at 22:51:20

; 

; external perimeters extrusion width = 0.45mm
; perimeters extrusion width = 0.45mm
; infill extrusion width = 0.45mm
; solid infill extrusion width = 0.45mm
; top infill extrusion width = 0.40mm
; first layer extrusion width = 0.42mm

M107 ; disable fan
M115 U3.4.0 ; tell printer latest fw version
M83  ; extruder relative mode
M104 S215 ; set extruder temp
M140 S60 ; set bed temp
M190 S60 ; wait for bed temp
M109 S215 ; wait for extruder temp
G28 W ; home all without mesh bed level
G80 ; mesh bed leveling
G1 Y-3.0 F1000.0 ; go outside print area
G92 E0.0
G1 X60.0 E9.0  F1000.0 ; intro line
G1 X100.0 E12.5  F1000.0 ; intro line
G92 E0.0
M221 S95
M900 K30
G21 ; set units to millimeters
G90 ; use absolute coordinates
M83 ; use relative distances for extrusion
;BEFORE_LAYER_CHANGE
G92 E0.0
;0.2


G1 E-0.80000 F2100.00000 ; retract
G1 Z0.600 F10800.000 ; lift Z
;AFTER_LAYER_CHANGE
;0.2
G1 X103.584 Y86.045 F10800.000 ; move to first skirt point
G1 Z0.200 F10800.000 ; restore layer Z
G1 E0.80000 F2100.00000 ; unretract
M204 S1000 ; adjust acceleration
G1 F1200
G1 X103.927 Y85.633 E0.01680 ; skirt
G1 X104.353 Y85.308 E0.01680 ; skirt
G1 X118.246 Y77.287 E0.50300 ; skirt
G1 X118.819 Y77.052 E0.01941 ; skirt
G1 X119.433 Y76.972 E0.01941 ; skirt
G1 X120.036 Y77.051 E0.01906 ; skirt
G1 X143.270 Y83.277 E0.75418 ; skirt
G1 X143.951 Y83.582 E0.02343 ; skirt
G1 X144.372 Y83.933 E0.01716 ; skirt
G1 X144.699 Y84.366 E0.01704 ; skirt
G1 X152.717 Y98.253 E0.50276 ; skirt
G1 X152.978 Y98.945 E0.02319 ; skirt
G1 X153.027 Y99.490 E0.01716 ; skirt
G1 X152.950 Y100.032 E0.01716 ; skirt
G1 X146.721 Y123.277 E0.75454 ; skirt
G1 X146.426 Y123.939 E0.02272 ; skirt
G1 X146.076 Y124.364 E0.01728 ; skirt
G1 X145.634 Y124.699 E0.01740 ; skirt
G1 X131.747 Y132.717 E0.50276 ; skirt
G1 X131.055 Y132.978 E0.02319 ; skirt
G1 X130.510 Y133.027 E0.01716 ; skirt
G1 X129.968 Y132.950 E0.01716 ; skirt
G1 X106.723 Y126.721 E0.75454 ; skirt
G1 X106.061 Y126.426 E0.02272 ; skirt
G1 X105.636 Y126.076 E0.01728 ; skirt
G1 X105.301 Y125.634 E0.01740 ; skirt
G1 X97.283 Y111.747 E0.50276 ; skirt
G1 X97.022 Y111.055 E0.02319 ; skirt
G1 X96.973 Y110.510 E0.01716 ; skirt
G1 X97.050 Y109.968 E0.01716 ; skirt
G1 X103.279 Y86.723 E0.75454 ; skirt
G1 X103.560 Y86.100 E0.02143 ; skirt
G1 F8640
G1 X103.927 Y85.633 E-0.13715 ; wipe and retract
G1 F8640
G1 X104.353 Y85.308 E-0.12375 ; wipe and retract
G1 F8640
G1 X106.225 Y84.228 E-0.49910 ; wipe and retract
G1 E-0.04000 F2100.00000 ; retract
G1 Z0.800 F10800.000 ; lift Z
G1 X106.374 Y87.564 F10800.000 ; move to first perimeter point
G1 Z0.200 F10800.000 ; restore layer Z
G1 E0.80000 F2100.00000 ; unretract
G1 F1200
G1 X119.213 Y80.151 E0.46485 ; perimeter
G1 X127.713 Y94.874 E0.53302 ; perimeter
G1 X142.436 Y86.374 E0.53302 ; perimeter
G1 X149.849 Y99.213 E0.46485 ; perimeter
G1 X135.126 Y107.713 E0.53302 ; perimeter
G1 X143.626 Y122.436 E0.53302 ; perimeter
G1 X130.787 Y129.849 E0.46485 ; perimeter
G1 X122.287 Y115.126 E0.53302 ; perimeter
G1 X107.564 Y123.626 E0.53302 ; perimeter
G1 X100.151 Y110.787 E0.46485 ; perimeter
G1 X114.874 Y102.287 E0.53302 ; perimeter
G1 X106.404 Y87.616 E0.53114 ; perimeter
G1 F8640
G1 X109.247 Y85.959 E-0.76000 ; wipe and retract
G1 E-0.04000 F2100.00000 ; retract
G1 Z0.800 F10800.000 ; lift Z
G1 X127.851 Y94.359 F10800.000 ; move to first perimeter point
G1 Z0.200 F10800.000 ; restore layer Z
G1 E0.80000 F2100.00000 ; unretract
G1 F1200
G1 X142.574 Y85.859 E0.53302 ; perimeter
G1 X150.364 Y99.351 E0.48850 ; perimeter
G1 X135.641 Y107.851 E0.53302 ; perimeter
G1 X144.141 Y122.574 E0.53302 ; perimeter
G1 X130.649 Y130.364 E0.48850 ; perimeter
G1 X122.149 Y115.641 E0.53302 ; perimeter
G1 X107.426 Y124.141 E0.53302 ; perimeter
G1 X99.636 Y110.649 E0.48850 ; perimeter
G1 X114.359 Y102.149 E0.53302 ; perimeter
G1 X105.859 Y87.426 E0.53302 ; perimeter
G1 X119.351 Y79.636 E0.48850 ; perimeter
G1 X127.821 Y94.307 E0.53114 ; perimeter
G1 X128.130 Y94.646 F10800.000 ; move inwards before travel
G1 X127.011 Y93.884 F10800.000 ; move to first infill point
G1 F1200
G1 X115.658 Y82.531 E0.50583 ; infill
G1 X115.318 Y82.727 E0.01236 ; infill
G1 X138.202 Y105.611 E1.01954 ; infill
G1 X138.542 Y105.415 E0.01236 ; infill
G1 X128.103 Y94.976 E0.46509 ; infill
G1 X128.442 Y94.779 E0.01236 ; infill
G1 X138.882 Y105.219 E0.46509 ; infill
G1 X139.221 Y105.023 E0.01236 ; infill
G1 X128.782 Y94.583 E0.46509 ; infill
G1 X129.122 Y94.387 E0.01236 ; infill
G1 X139.561 Y104.826 E0.46509 ; infill
G1 X139.901 Y104.630 E0.01236 ; infill
G1 X129.461 Y94.191 E0.46509 ; infill
G1 X129.801 Y93.995 E0.01236 ; infill
G1 X140.240 Y104.434 E0.46509 ; infill
G1 X140.580 Y104.238 E0.01236 ; infill
G1 X130.141 Y93.799 E0.46509 ; infill
G1 X130.480 Y93.603 E0.01236 ; infill
G1 X140.920 Y104.042 E0.46509 ; infill
G1 X141.259 Y103.846 E0.01236 ; infill
G1 X130.820 Y93.407 E0.46509 ; infill
G1 X131.160 Y93.210 E0.01236 ; infill
G1 X141.599 Y103.650 E0.46509 ; infill
G1 X141.939 Y103.454 E0.01236 ; infill
G1 X131.499 Y93.014 E0.46509 ; infill
G1 X131.839 Y92.818 E0.01236 ; infill
G1 X142.278 Y103.258 E0.46509 ; infill
G1 X142.618 Y103.061 E0.01236 ; infill
G1 X132.179 Y92.622 E0.46509 ; infill
G1 X132.518 Y92.426 E0.01236 ; infill
G1 X142.958 Y102.865 E0.46509 ; infill
G1 X143.297 Y102.669 E0.01236 ; infill
G1 X132.858 Y92.230 E0.46509 ; infill
G1 X133.198 Y92.034 E0.01236 ; infill
G1 X143.637 Y102.473 E0.46509 ; infill
G1 X143.977 Y102.277 E0.01236 ; infill
G1 X133.538 Y91.838 E0.46509 ; infill
G1 X133.877 Y91.642 E0.01236 ; infill
G1 X144.316 Y102.081 E0.46509 ; infill
G1 X144.656 Y101.885 E0.01236 ; infill
G1 X134.217 Y91.445 E0.46509 ; infill
G1 X134.557 Y91.249 E0.01236 ; infill
G1 X144.996 Y101.689 E0.46509 ; infill
G1 X145.336 Y101.492 E0.01236 ; infill
G1 X134.896 Y91.053 E0.46509 ; infill
G1 X135.236 Y90.857 E0.01236 ; infill
G1 X145.675 Y101.296 E0.46509 ; infill
G1 X146.015 Y101.100 E0.01236 ; infill
G1 X135.576 Y90.661 E0.46509 ; infill
G1 X135.915 Y90.465 E0.01236 ; infill
G1 X146.355 Y100.904 E0.46509 ; infill
G1 X146.694 Y100.708 E0.01236 ; infill
G1 X136.255 Y90.269 E0.46509 ; infill
G1 X136.595 Y90.073 E0.01236 ; infill
G1 X147.034 Y100.512 E0.46509 ; infill
G1 X147.374 Y100.316 E0.01236 ; infill
G1 X136.934 Y89.877 E0.46509 ; infill
G1 X137.274 Y89.680 E0.01236 ; infill
G1 X147.713 Y100.120 E0.46509 ; infill
G1 X148.053 Y99.924 E0.01236 ; infill
G1 X137.614 Y89.484 E0.46509 ; infill
G1 X137.953 Y89.288 E0.01236 ; infill
G1 X148.393 Y99.727 E0.46509 ; infill
G1 X148.732 Y99.531 E0.01236 ; infill
G1 X138.293 Y89.092 E0.46509 ; infill
G1 X138.633 Y88.896 E0.01236 ; infill
G1 X149.072 Y99.335 E0.46509 ; infill
G1 X149.412 Y99.139 E0.01236 ; infill
G1 X138.973 Y88.700 E0.46509 ; infill
G1 X139.312 Y88.504 E0.01236 ; infill
G1 X149.303 Y98.495 E0.44512 ; infill
G1 F8640
G1 X146.976 Y96.167 E-0.76000 ; wipe and retract
G1 E-0.04000 F2100.00000 ; retract
G1 Z0.800 F10800.000 ; lift Z
G1 X148.571 Y97.227 F10800.000 ; move to first infill point
G1 Z0.200 F10800.000 ; restore layer Z
G1 E0.80000 F2100.00000 ; unretract
G1 F1200
G1 X139.652 Y88.308 E0.39737 ; infill
G1 X139.992 Y88.111 E0.01236 ; infill
G1 X147.839 Y95.959 E0.34963 ; infill
G1 F8640
G1 X145.512 Y93.632 E-0.76000 ; wipe and retract
G1 E-0.04000 F2100.00000 ; retract
G1 Z0.800 F10800.000 ; lift Z
G1 X147.107 Y94.691 F10800.000 ; move to first infill point
G1 Z0.200 F10800.000 ; restore layer Z
G1 E0.80000 F2100.00000 ; unretract
G1 F1200
G1 X140.331 Y87.915 E0.30189 ; infill
G1 X140.671 Y87.719 E0.01236 ; infill
G1 X146.375 Y93.424 E0.25415 ; infill
G1 F8640
G1 X144.048 Y91.096 E-0.76000 ; wipe and retract
G1 E-0.04000 F2100.00000 ; retract
G1 Z0.800 F10800.000 ; lift Z
G1 X145.643 Y92.156 F10800.000 ; move to first infill point
G1 Z0.200 F10800.000 ; restore layer Z
G1 E0.80000 F2100.00000 ; unretract
G1 F1200
G1 X141.011 Y87.523 E0.20640 ; infill
G1 X141.350 Y87.327 E0.01236 ; infill
G1 X144.912 Y90.888 E0.15866 ; infill
G1 F8640
G1 X142.584 Y88.561 E-0.76000 ; wipe and retract
G1 E-0.04000 F2100.00000 ; retract
G1 Z0.800 F10800.000 ; lift Z
G1 X144.180 Y89.621 F10800.000 ; move to first infill point
G1 Z0.200 F10800.000 ; restore layer Z
G1 E0.80000 F2100.00000 ; unretract
G1 F1200
G1 X141.690 Y87.131 E0.11092 ; infill
G1 X142.030 Y86.935 E0.01236 ; infill
G1 X143.448 Y88.353 E0.06318 ; infill
G1 F8640
G1 X142.030 Y86.935 E-0.46305 ; wipe and retract
G1 F8640
G1 X141.690 Y87.131 E-0.09057 ; wipe and retract
G1 F8640
G1 X142.322 Y87.763 E-0.20638 ; wipe and retract
G1 E-0.04000 F2100.00000 ; retract
G1 Z0.800 F10800.000 ; lift Z
G1 X126.280 Y92.617 F10800.000 ; move to first infill point
G1 Z0.200 F10800.000 ; restore layer Z
G1 E0.80000 F2100.00000 ; unretract
G1 F1200
G1 X115.997 Y82.335 E0.45809 ; infill
G1 X116.337 Y82.138 E0.01236 ; infill
G1 X125.548 Y91.349 E0.41035 ; infill
G1 F8640
G1 X123.220 Y89.022 E-0.76000 ; wipe and retract
G1 E-0.04000 F2100.00000 ; retract
G1 Z0.800 F10800.000 ; lift Z
G1 X124.816 Y90.081 F10800.000 ; move to first infill point
G1 Z0.200 F10800.000 ; restore layer Z
G1 E0.80000 F2100.00000 ; unretract
G1 F1200
G1 X116.677 Y81.942 E0.36261 ; infill
G1 X117.016 Y81.746 E0.01236 ; infill
G1 X124.084 Y88.814 E0.31487 ; infill
G1 F8640
G1 X121.756 Y86.486 E-0.76000 ; wipe and retract
G1 E-0.04000 F2100.00000 ; retract
G1 Z0.800 F10800.000 ; lift Z
G1 X123.352 Y87.546 F10800.000 ; move to first infill point
G1 Z0.200 F10800.000 ; restore layer Z
G1 E0.80000 F2100.00000 ; unretract
G1 F1200
G1 X117.356 Y81.550 E0.26712 ; infill
G1 X117.696 Y81.354 E0.01236 ; infill
G1 X122.620 Y86.278 E0.21938 ; infill
G1 F8640
G1 X120.293 Y83.951 E-0.76000 ; wipe and retract
G1 E-0.04000 F2100.00000 ; retract
G1 Z0.800 F10800.000 ; lift Z
G1 X121.888 Y85.010 F10800.000 ; move to first infill point
G1 Z0.200 F10800.000 ; restore layer Z
G1 E0.80000 F2100.00000 ; unretract
G1 F1200
G1 X118.036 Y81.158 E0.17164 ; infill
G1 X118.375 Y80.962 E0.01236 ; infill
G1 X121.156 Y83.743 E0.12390 ; infill
G1 F8640
G1 X118.829 Y81.415 E-0.76000 ; wipe and retract
G1 E-0.04000 F2100.00000 ; retract
G1 Z0.800 F10800.000 ; lift Z
G1 X120.424 Y82.475 F10800.000 ; move to first infill point
G1 Z0.200 F10800.000 ; restore layer Z
G1 E0.80000 F2100.00000 ; unretract
G1 F1200
G1 X118.715 Y80.766 E0.07616 ; infill
G1 X119.055 Y80.570 E0.01236 ; infill
G1 X119.692 Y81.207 E0.02841 ; infill
G1 F8640
G1 X119.055 Y80.570 E-0.20826 ; wipe and retract
G1 F8640
G1 X118.715 Y80.766 E-0.09057 ; wipe and retract
G1 F8640
G1 X120.127 Y82.178 E-0.46117 ; wipe and retract
G1 E-0.04000 F2100.00000 ; retract
G1 Z0.800 F10800.000 ; lift Z
G1 X106.702 Y87.505 F10800.000 ; move to first infill point
G1 Z0.200 F10800.000 ; restore layer Z
G1 E0.80000 F2100.00000 ; unretract
G1 F1200
G1 X142.155 Y122.959 E1.57951 ; infill
G1 X142.495 Y122.763 E0.01236 ; infill
G1 X107.166 Y87.434 E1.57398 ; infill
G1 X107.505 Y87.237 E0.01236 ; infill
G1 X142.834 Y122.566 E1.57398 ; infill
G1 X143.174 Y122.370 E0.01236 ; infill
G1 X107.845 Y87.041 E1.57398 ; infill
G1 X108.185 Y86.845 E0.01236 ; infill
G1 X143.114 Y121.774 E1.55616 ; infill
G1 F8640
G1 X140.786 Y119.447 E-0.76000 ; wipe and retract
G1 E-0.04000 F2100.00000 ; retract
G1 Z0.800 F10800.000 ; lift Z
G1 X142.382 Y120.507 F10800.000 ; move to first infill point
G1 Z0.200 F10800.000 ; restore layer Z
G1 E0.80000 F2100.00000 ; unretract
G1 F1200
G1 X108.524 Y86.649 E1.50842 ; infill
G1 X108.864 Y86.453 E0.01236 ; infill
G1 X141.650 Y119.239 E1.46068 ; infill
G1 F8640
G1 X139.323 Y116.912 E-0.76000 ; wipe and retract
G1 E-0.04000 F2100.00000 ; retract
G1 Z0.800 F10800.000 ; lift Z
G1 X140.918 Y117.971 F10800.000 ; move to first infill point
G1 Z0.200 F10800.000 ; restore layer Z
G1 E0.80000 F2100.00000 ; unretract
G1 F1200
G1 X109.204 Y86.257 E1.41294 ; infill
G1 X109.543 Y86.061 E0.01236 ; infill
G1 X140.186 Y116.703 E1.36520 ; infill
G1 F8640
G1 X137.859 Y114.376 E-0.76000 ; wipe and retract
G1 E-0.04000 F2100.00000 ; retract
G1 Z0.800 F10800.000 ; lift Z
G1 X139.454 Y115.436 F10800.000 ; move to first infill point
G1 Z0.200 F10800.000 ; restore layer Z
G1 E0.80000 F2100.00000 ; unretract
G1 F1200
G1 X109.883 Y85.865 E1.31745 ; infill
G1 X110.223 Y85.669 E0.01236 ; infill
G1 X138.722 Y114.168 E1.26971 ; infill
G1 F8640
G1 X136.395 Y111.841 E-0.76000 ; wipe and retract
G1 E-0.04000 F2100.00000 ; retract
G1 Z0.800 F10800.000 ; lift Z
G1 X137.990 Y112.900 F10800.000 ; move to first infill point
G1 Z0.200 F10800.000 ; restore layer Z
G1 E0.80000 F2100.00000 ; unretract
G1 F1200
G1 X110.562 Y85.472 E1.22197 ; infill
G1 X110.902 Y85.276 E0.01236 ; infill
G1 X137.258 Y111.633 E1.17423 ; infill
G1 F8640
G1 X134.931 Y109.305 E-0.76000 ; wipe and retract
G1 E-0.04000 F2100.00000 ; retract
G1 Z0.800 F10800.000 ; lift Z
G1 X136.527 Y110.365 F10800.000 ; move to first infill point
G1 Z0.200 F10800.000 ; restore layer Z
G1 E0.80000 F2100.00000 ; unretract
G1 F1200
G1 X111.242 Y85.080 E1.12649 ; infill
G1 X111.581 Y84.884 E0.01236 ; infill
G1 X135.795 Y109.097 E1.07874 ; infill
G1 F8640
G1 X133.467 Y106.770 E-0.76000 ; wipe and retract
G1 E-0.04000 F2100.00000 ; retract
G1 Z0.800 F10800.000 ; lift Z
G1 X135.063 Y107.829 F10800.000 ; move to first infill point
G1 Z0.200 F10800.000 ; restore layer Z
G1 E0.80000 F2100.00000 ; unretract
G1 F1200
G1 X111.921 Y84.688 E1.03100 ; infill
G1 X112.261 Y84.492 E0.01236 ; infill
G1 X135.145 Y107.376 E1.01954 ; infill
G1 X135.485 Y107.180 E0.01236 ; infill
G1 X112.601 Y84.296 E1.01954 ; infill
G1 X112.940 Y84.100 E0.01236 ; infill
G1 X135.824 Y106.984 E1.01954 ; infill
G1 X136.164 Y106.788 E0.01236 ; infill
G1 X113.280 Y83.903 E1.01954 ; infill
G1 X113.620 Y83.707 E0.01236 ; infill
G1 X136.504 Y106.591 E1.01954 ; infill
G1 X136.843 Y106.395 E0.01236 ; infill
G1 X113.959 Y83.511 E1.01954 ; infill
G1 X114.299 Y83.315 E0.01236 ; infill
G1 X137.183 Y106.199 E1.01954 ; infill
G1 X137.523 Y106.003 E0.01236 ; infill
G1 X114.639 Y83.119 E1.01954 ; infill
G1 X114.978 Y82.923 E0.01236 ; infill
G1 X137.987 Y105.931 E1.02507 ; infill
G1 F8640
G1 X135.659 Y103.604 E-0.76000 ; wipe and retract
G1 E-0.04000 F2100.00000 ; retract
G1 Z0.800 F10800.000 ; lift Z
G1 X141.939 Y123.279 F10800.000 ; move to first infill point
G1 Z0.200 F10800.000 ; restore layer Z
G1 E0.80000 F2100.00000 ; unretract
G1 F1200
G1 X106.886 Y88.226 E1.56169 ; infill
G1 F8640
G1 X109.214 Y90.553 E-0.76000 ; wipe and retract
G1 E-0.04000 F2100.00000 ; retract
G1 Z0.800 F10800.000 ; lift Z
G1 X107.618 Y89.494 F10800.000 ; move to first infill point
G1 Z0.200 F10800.000 ; restore layer Z
G1 E0.80000 F2100.00000 ; unretract
G1 F1200
G1 X141.600 Y123.475 E1.51395 ; infill
G1 X141.260 Y123.671 F10800.000 ; move to first infill point
G1 F1200
G1 X108.350 Y90.761 E1.46620 ; infill
G1 F8640
G1 X110.678 Y93.089 E-0.76000 ; wipe and retract
G1 E-0.04000 F2100.00000 ; retract
G1 Z0.800 F10800.000 ; lift Z
G1 X109.082 Y92.029 F10800.000 ; move to first infill point
G1 Z0.200 F10800.000 ; restore layer Z
G1 E0.80000 F2100.00000 ; unretract
G1 F1200
G1 X140.920 Y123.867 E1.41846 ; infill
G1 X140.581 Y124.063 F10800.000 ; move to first infill point
G1 F1200
G1 X109.814 Y93.297 E1.37072 ; infill
G1 F8640
G1 X112.141 Y95.624 E-0.76000 ; wipe and retract
G1 E-0.04000 F2100.00000 ; retract
G1 Z0.800 F10800.000 ; lift Z
G1 X110.546 Y94.565 F10800.000 ; move to first infill point
G1 Z0.200 F10800.000 ; restore layer Z
G1 E0.80000 F2100.00000 ; unretract
G1 F1200
G1 X140.241 Y124.260 E1.32298 ; infill
G1 X139.901 Y124.456 F10800.000 ; move to first infill point
G1 F1200
G1 X111.278 Y95.832 E1.27523 ; infill
G1 F8640
G1 X113.605 Y98.160 E-0.76000 ; wipe and retract
G1 E-0.04000 F2100.00000 ; retract
G1 Z0.800 F10800.000 ; lift Z
G1 X112.010 Y97.100 F10800.000 ; move to first infill point
G1 Z0.200 F10800.000 ; restore layer Z
G1 E0.80000 F2100.00000 ; unretract
G1 F1200
G1 X139.562 Y124.652 E1.22749 ; infill
G1 X139.222 Y124.848 F10800.000 ; move to first infill point
G1 F1200
